dist/assets/filter_list_alt.svg

<svg xmlns="http://www.w3.org/2000/svg" width="24" height="24" fill="none"><g clip-path="url(#a)"><path fill="#1C4980" d="M4.25 5.66c.1.13 5.74 7.33 5.74 7.33V19c0 .55.45 1 1.01 1h2.01c.55 0 1.01-.45 1.01-1v-6.02s5.49-7.02 5.75-7.34C20.03 5.32 20 5 20 5c0-.55-.45-1-1.01-1H5.01C4.4 4 4 4.48 4 5c0 .2.06.44.25.66Z"/></g><defs><clipPath id="a"><path fill="#fff" d="M0 0h24v24H0z"/></clipPath></defs></svg>

<svg width="24" height="24" viewBox="0 0 24 24" fill="none" xmlns="http://www.w3.org/2000/svg">
<g id="filter_list_alt" clip-path="url(#clip0_6937_286)">
<path id="Vector" d="M4.25 5.66C4.35 5.79 9.99 12.99 9.99 12.99V19C9.99 19.55 10.44 20 11 20H13.01C13.56 20 14.02 19.55 14.02 19V12.98C14.02 12.98 19.51 5.96 19.77 5.64C20.03 5.32 20 5 20 5C20 4.45 19.55 4 18.99 4H5.01C4.4 4 4 4.48 4 5C4 5.2 4.06 5.44 4.25 5.66Z" fill="#1C4980"/>
</g>
<defs>
<clipPath id="clip0_6937_286">
<rect width="24" height="24" fill="white"/>
</clipPath>
</defs>
</svg>
